X:1
T:Title
%%score { 1 | 2 }
L:1/8
M:4/4
K:Db
V:1 treble nm="Grand Piano"
V:2 bass 
V:1
 z4 z2[Q:1/4=100] DE | F [FA]2 [GB] [FA]FED | [Fd] [Fd]2 [GB] [FA]2 DE | F [FA]2 [GB] [FA]FED | %4
 [CE]6 [CE][DF] | [EG] [EG]2 [FA] [Ac][GB][FA][EG] | F F2 G A2 DE | %7
 F [FA]2 [GB] [FA][A,DF][K:bass][A,CE][G,CE] |[M:3/4] [F,D]4 z2 |[M:1/4][K:treble] AA | %10
[M:4/4] [Fd] [Fd]2 [Ge] [Af][Ge][Fd][Fd] | e d2 B [FA]2 DE | F [FA]2 [FA] [Fd][Fd][Fd][Af] | %13
[M:3/4] e6 |[M:1/4] AA |[M:4/4] [Fd] [Fd]2 [Ge] [Af][Ge][Fd][Fd] | e d2 B [FA]2 DE | %17
 F [FA]2 [GB] [FA][A,DF][K:bass][A,CE][G,CE] |[M:3/4] [F,D]6 |] %19
V:2
 z4 z2 [D,F,][D,G,D] | [D,A,D] [D,D]2 [D,D] [D,D][D,A,D][D,G,C][D,F,] | %2
 [D,A,] [D,A,]2 [D,D] [D,D]2 [D,F,][D,G,D] | [D,A,D] [D,D]2 [D,D] [D,D][D,A,D][E,A,C][E,=G,B,] | %4
 [A,,A,]6 [A,,A,][A,,A,] | [A,,A,] [A,,A,]2 [A,,A,] [A,,A,][A,,A,][A,,A,][A,,A,] | %6
 [D,A,D] [D,A,D]2 [E,A,C] [F,A,D]2 [D,F,][D,G,D] | [D,A,D] [D,D]2 [D,D] [D,D]D,A,,A,, | %8
[M:3/4] D,4 z2 |[M:1/4] A,A, |[M:4/4] [D,A,] [D,A,]2 [D,A,] [D,D][D,D][D,A,][D,A,] | %11
 [G,B,G] [G,B,G]2 [G,DG] [D,D]2 [D,F,][D,G,D] | [D,A,D] [D,D]2 [D,D] [D,A,][D,A,][D,A,][D,D] | %13
[M:3/4][K:treble] [A,CA]6 |[M:1/4] A,[K:bass]A, | %15
[M:4/4] [D,A,] [D,A,]2 [D,A,] [D,D][D,D][D,A,][D,A,] | %16
 [G,B,G] [G,B,G]2 [G,DG] [D,D]2 [D,F,][D,G,D] | [D,A,D] [D,D]2 [D,D] [D,D]D,A,,A,, |[M:3/4] D,6 |] %19

